!!!OTL: 706. Schwabenkrieg.
!!!COM: Volksweise
!!!ODT: 1845
!!!ARE: Europa, Mitteleuropa, Deutschland
!!!SCT: B0706
!!!TXL: @@DE
!!!YEM: Copyright 1995, estate of Helmut Schaffrath.
**kern	**text
*ICvox	*
*Ivox	*
*clefG2	*
*M4/4	*
*met(c)	*
*k[f#c#g#]	*
*A:	*
!LO:TX:a:t=Einʒelne, dann vom Chor wiederholt.	!
!LO:TX:a:t=Friſch und lebendig.	!
{4e	Die
=1	=1
4.a	Trommel
8a	.
4a	ſchlägt
4a	ʒum
=2	=2
4.a	Krieg
8f#	hin-
4e}	-aus
{4e	mit
=3	=3
4f#	Spie-
4f#	-ßen,
4.g#	De-
8e	-gen,
=4	=4
2a	Flin-
4a}	-ten!
{4e	Die
=5	=5
4.a	Trommel
8a	.
4a	ſchlägt
4a	ʒum
=6	=6
4.a	Krieg
8f#	hin-
4e}	-aus
{4e	mit
=7	=7
4f#	Spie-
4f#	-ßen,
4.g#	De-
8e	-gen,
=8	=8
2a	Flin-
4a}	-ten!
{4a	Für-
=9	=9
4.cc#	-wahr,
8cc#	es
4cc#	iſt
4ee	ein
=10	=10
4.dd	har-
8cc#	-ter
4b}	Strauß!
{4a	Wir
=11	=11
4.b	ʒiehn
8b	hin-
4b	-aus
4dd	mit
=12	=12
4.cc#	Mann
8b	und
4a}	Maus,
{4e	und
=13	=13
4.cc#	kei-
8a	-ner
4.dd	bleibt
8g#	da-
=14	=14
2a	-hin-
4a}	-ten.
{4a	Für-
=15	=15
4.cc#	-wahr,
8cc#	es
4cc#	iſt
4ee	ein
=16	=16
4.dd	har-
8cc#	-ter
4b}	Strauß!
{4a	Wir
=17	=17
4.b	ʒiehn
8b	hin-
4b	-aus
4dd	mit
=18	=18
4.cc#	Mann
8b	und
4a}	Maus,
{4e	und
=19	=19
4.cc#	kei-
8a	-ner
4.dd	bleibt
8g#	da-
=20	=20
2a	-hin-
4a}	-ten.
==	==
!!!AGN: Scherz -, Spott -, anti - Kriegs - Lied
!!!GTL: Scherzlieder und Gemischtes
!!!ONB: ESAC (Essen Associative Code) Database: BOEHME
!!!AMT: simple quadruple
!!!AIN: vox
!!!EED: Helmut Schaffrath
!!!EEV: 1.0
!!Nach einer Volksweise (1845).
!!@@COMMENT:"Ged. v. Hoffmann v. Fallersleben 1837.[...]"
!!@@END:
!!!Text: H. von Fallersleben
!!!URL-scan: https://archive.org/details/BoehmeVtLieder1895/page/n555/mode/2up
!!!ENC: Anna Maria Matuszewska
!!!EEV: 2024/17/07
*-	*-
